!!!OTL: Der verkleidete Markgrafensohn Es freiet ein reicher Kaufmannssohn
!!!ARE: Europa, Mitteleuropa, Deutschland / France, Lothringen, Forbach
!!!YOR: 1, S. 53
!!    1927 aufgezeichnet  (17. Jh. ?)
!!!SCT: Q0006C
!!!YEM: Copyright 1995, estate of Helmut Schaffrath.
**kern
*ICvox
*Ivox
*M6/8
*k[f#]
*G:
{8d
=1
8g
8g
8g
8g
8a
8b
=2
8b
8a
8b
4g}
{8d
=3
8cc
8b
8a
8b
8a
8g
=4
4f#
8a
4g}
{8a
=5
8a
8a
8a
8a
8b
8cc
=6
8b
8a
8b
4g}
{8g
=7
8cc
8b
8a
8b
8a
8g
=8
4f#
8a
4g}
==
!!!AGN: Ballade, Braut - Werbung
!!!ONB: ESAC (Essen Associative Code) Database: BALLADE
!!!AMT: compound duple
!!!AIN: vox
!!!EED: Helmut Schaffrath
!!!EEV: 1.0
*-
